src/lib/packages/icons/src/assets/filled/clipboard.svg

<svg width="24" height="24" viewBox="0 0 24 24" fill="none" xmlns="http://www.w3.org/2000/svg">
<path d="M20 8V18C20 20 19 21 17 21H7C5 21 4 20 4 18V8C4 6.258 4.75189 5.27701 6.26489 5.05701C6.38589 5.03901 6.5 5.13899 6.5 5.26099V5.49902C6.5 7.31902 7.68 8.49902 9.5 8.49902H14.5C16.32 8.49902 17.5 7.31902 17.5 5.49902V5.26099C17.5 5.13899 17.6151 5.03901 17.7351 5.05701C19.2481 5.27701 20 6.258 20 8ZM9.5 7H14.5C15.5 7 16 6.5 16 5.5V4.5C16 3.5 15.5 3 14.5 3H9.5C8.5 3 8 3.5 8 4.5V5.5C8 6.5 8.5 7 9.5 7Z" fill="currentColor"/>
</svg>

<svg xmlns="http://www.w3.org/2000/svg" width="24" height="24" fill="none"><path fill="currentColor" d="M20 8v10c0 2-1 3-3 3H7c-2 0-3-1-3-3V8c0-1.742.752-2.723 2.265-2.943a.21.21 0 0 1 .235.204v.238c0 1.82 1.18 3 3 3h5c1.82 0 3-1.18 3-3v-.238a.21.21 0 0 1 .235-.204C19.248 5.277 20 6.258 20 8ZM9.5 7h5c1 0 1.5-.5 1.5-1.5v-1c0-1-.5-1.5-1.5-1.5h-5C8.5 3 8 3.5 8 4.5v1C8 6.5 8.5 7 9.5 7Z"/></svg>
